22x22/apps/appimagekit-bloomrpc.svg

<svg xmlns="http://www.w3.org/2000/svg" width="22" height="22" version="1">
 <path style="opacity:0.2" d="M 7.546875,1.5 C 6.8394149,2.5817979 6.236566,3.6566127 5.7265625,4.71875 4.4272048,3.2415721 3.2561196,2.2329424 2.5703125,2.0351562 0.68716212,13.54397 3.4216829,20.03439 11.494141,21.5 19.32236,18.556069 22.340182,13.508814 20.457031,2 20.099546,1.9351723 19.134849,2.5891961 17.970703,3.8007812 17.583638,3.0380213 17.158774,2.2714104 16.654297,1.5 14.807471,2.0040731 13.285641,2.8338208 12.050781,3.8730469 10.876913,2.8341423 9.393296,2.0039625 7.546875,1.5 Z"/>
 <path style="fill:#5edd86" d="M 2.5698961,1.535425 C 5.28356,2.3180433 15.573327,15.747829 11.494868,21 3.4224103,19.53439 0.68674572,13.044239 2.5698961,1.535425 Z"/>
 <path style="opacity:0.2;fill:#f4f4f7" d="M 2.5703125,1.5351563 C 2.1865351,3.8805993 1.9979441,6.013865 2.0039062,7.942383 2.0295833,6.147203 2.2196032,4.178505 2.5703125,2.0351563 4.817745,2.6833138 12.253996,12.003001 12.428711,18.170898 12.66774,12.020729 4.879275,2.2010591 2.5703125,1.5351563 Z"/>
 <path style="fill:#077cc5" d="M 16.654119,1.0000004 C 6.065866,3.88996 5.956558,17.353343 11.494868,21 20.692576,17.587368 22.182028,9.452888 16.654119,1.0000004 Z"/>
 <path style="opacity:0.1;fill:#f4f4f7" d="M 16.654297,1 C 10.329687,2.7262402 7.7457405,8.224649 7.8691405,13.150391 7.927384,8.3580235 10.542718,3.1680953 16.654297,1.5 18.710549,4.6442755 19.793313,7.743722 19.87207,10.573242 19.915384,7.610627 18.832632,4.330956 16.654297,1 Z"/>
 <path style="fill:#218ef2" d="M 7.5474195,1.0000004 C 18.135673,3.88996 17.033179,17.353343 11.494868,21 6.0234475,18.969935 4.087935,15.268959 4.0285804,10.824019 3.9881572,7.796812 5.307886,4.4245365 7.5474195,1.0000004 Z"/>
 <path style="opacity:0.2;fill:#f4f4f7" d="m 7.546875,1 c -2.2395335,3.4245361 -3.5580013,6.7970117 -3.5175781,9.824219 8.443e-4,0.06323 0.012063,0.122618 0.013672,0.185547 C 4.0932116,8.0635568 5.3838706,4.8075133 7.546875,1.5 13.339596,3.0810663 15.617152,7.8268136 15.599609,12.398438 15.791179,7.6776104 13.551215,2.6388256 7.546875,1 Z"/>
 <path style="fill:#0dd8c1" d="M 20.456552,1.5 C 19.215622,1.2749649 10.74532,9.474626 11.494868,21 19.323087,18.056069 22.339703,13.008814 20.456552,1.5 Z"/>
 <path style="opacity:0.2;fill:#f4f4f7" d="M 20.457031,1.5 C 19.252403,1.2815481 11.236468,9.002961 11.454101,19.998047 11.484145,9.270578 19.270809,1.784886 20.457031,2 20.79873,4.088279 20.976511,5.961559 20.996094,7.6503905 21.00994,5.8333995 20.832917,3.7972161 20.457031,1.5 Z"/>
</svg>

<svg xmlns="http://www.w3.org/2000/svg" width="22" height="22" version="1"><path style="opacity:.2" d="M7.547 1.5a28.117 28.117 0 0 0-1.82 3.219c-1.3-1.477-2.47-2.486-3.157-2.684-1.883 11.509.852 18 8.924 19.465 7.828-2.944 10.846-7.991 8.963-19.5-.357-.065-1.322.59-2.486 1.8a24.004 24.004 0 0 0-1.317-2.3c-1.847.504-3.368 1.334-4.603 2.373C10.877 2.834 9.393 2.004 7.547 1.5z"/><path style="fill:#5edd86" d="M2.57 1.535C5.284 2.318 15.573 15.748 11.495 21 3.422 19.534.687 13.044 2.57 1.535z"/><path style="opacity:.2;fill:#f4f4f7" d="M2.57 1.535c-.383 2.346-.572 4.479-.566 6.407.026-1.795.216-3.763.566-5.907 2.248.648 9.684 9.968 9.859 16.136.239-6.15-7.55-15.97-9.859-16.636z"/><path style="fill:#077cc5" d="M16.654 1C6.066 3.89 5.957 17.353 11.494 21c9.199-3.413 10.688-11.547 5.16-20z"/><path style="opacity:.1;fill:#f4f4f7" d="M16.654 1C10.33 2.726 7.746 8.225 7.87 13.15c.058-4.792 2.674-9.982 8.785-11.65 2.057 3.144 3.14 6.244 3.218 9.073.043-2.962-1.04-6.242-3.218-9.573z"/><path style="fill:#218ef2" d="M7.547 1c10.589 2.89 9.486 16.353 3.948 20-5.472-2.03-7.407-5.731-7.466-10.176-.04-3.027 1.279-6.4 3.518-9.824z"/><path style="opacity:.2;fill:#f4f4f7" d="M7.547 1c-2.24 3.425-3.558 6.797-3.518 9.824.001.063.012.123.014.186.05-2.946 1.34-6.202 3.504-9.51 5.793 1.581 8.07 6.327 8.053 10.898C15.79 7.678 13.55 2.638 7.547 1z"/><path style="fill:#0dd8c1" d="M20.457 1.5c-1.241-.225-9.712 7.975-8.962 19.5 7.828-2.944 10.845-7.991 8.962-19.5z"/><path style="opacity:.2;fill:#f4f4f7" d="M20.457 1.5c-1.205-.218-9.22 7.503-9.003 18.498C11.484 9.271 19.271 1.785 20.457 2c.342 2.088.52 3.962.54 5.65.013-1.817-.164-3.853-.54-6.15z"/></svg>
